X:205
T:Upper Room (reel), The  
B:CRE1.130 (Seomra in Uachtar)
F:file ID cre.1/205upper
S:John Potts
N:Alternate m.1: |BGGF GBAF|
M:C
L:1/8
Q:180
R:reel
K:G
GBAF GBAF|D2D2 ADFD|DGGF GABc|d^cde fd=cA|
GBAF GBAF|D2D2 ADFD|DGGF GABc|dfe^c d2||
cA|dggf gbag|fdde fdcA|dggf gbag|fgaf g2ge|
defg a2ag|fde^c defg|af (3gfe fde^c|dfe^c d2=cA||

%%%

